!!!OTL: 111. Freylekhs
!!!Genre:	Freylekhs
!!!Mode:	Altered Dorian
!!!Listening/dance:	dance
!!!:	*B-:
!!!One_Mode:	no
**kern
*thru
*part1
*staff1
*clefG2
*>A
*k[b-]
*B-:
=19!|:
*k[b-e-]
!LO:TX:a:i:t=Bb-major
8r
(<24fLL
24g
24fJJ
8enL
8fJ)
=20
8b-'L
8f'
8dd'
8f'J
=21
8ee-'L
8f'
8dd'
8f'J
=22
24cc^LL
24dd
24cc#XJ
8b-J
(>8dd^L
8b-J)
=23
8r
(<24fLL
24g
24fJJ
8enL
8fJ)
=24
8b-'L
8f'
8dd'
8f'J
*>C1
=25
8ee-'L
8f'J
8dd'L
8b-'J
=26
16ccLL
16dd
16ccX
16aJJ
4b-
*>C
*k[b-e-]
!LO:TX:a:i:t=Bb-major
8r
(<24fLL
24g
24fJJ
8enL
8fJ)
=20
8b-'L
8f'
8dd'
8f'J
=21
8ee-'L
8f'
8dd'
8f'J
=22
24cc^LL
24dd
24cc#XJ
8b-J
(>8dd^L
8b-J)
=23
8r
(<24fLL
24g
24fJJ
8enL
8fJ)
=24
8b-'L
8f'
8dd'
8f'J
*>C2
=27:|!
4ee-
4dd
=28
!LO:TX:b:Bi:t=Da Capo al Fine
(>16ccLL
16dd
16cc
16aJJ)
8b-L
8ddJ
!!!End-Modulation
==
*-
